X: 1
T: Iste Kornbodsmarsch
C: Peter "Puma" Hedlund
R: march
S: Fiddle Hell Online 2020-11-05 handout from Bronwyn Bird
S: Fiddle Hell Online 2022-4-2 handout for Bronwyn Bird's Swedish Jam
Z: 2020 John Chambers <jc:trillian.mit.edu>
Z: Chords added by John Chambers
N: Double thin bar lines show the phrases; the printed version has 4 staff lines.
M: 2/4
L: 1/16
K: G
D2 |\
 "G"B2AB "D7"c2Bc | "G"d2cd "C"e3g |"D7"f2df  "C"e2ce | "G"d6 "D7"c2 ||\
 "G"B2GB "D7"A2FA | "G"G2DG "C"E3D | "C"C2EG "D7"D2FA | "G"G6 :|
|: G2 |\
"D7"F2DF     A2Ac | "G"B2GB   d2d2 |"A7"e2^ce    g2ba |"D7"f4 (3f2d2c2 ||\
 "G"B2GB "D7"A2FA | "G"G2DG "C"E3D | "C"C2EG "D7"D2FA | "G"G6 :|
